svgs/sharp-regular/fish-bones.svg

<svg xmlns="http://www.w3.org/2000/svg" viewBox="0 0 576 512"><!--! Font Awesome Pro 6.6.0 by @fontawesome - https://fontawesome.com License - https://fontawesome.com/license (Commercial License) Copyright 2024 Fonticons, Inc. --><path d="M32 96L0 128 64 256 0 384l32 32 64-64 0-48 0-24 40 0 0 72 0 24 48 0 0-24 0-72 48 0 0 72 0 24 48 0 0-24 0-72 48 0 0 72 0 24 48 0 0-24 0-72 40 0 0 72 0 11.8 0 7.8 0 28.4 32 0 16-18L576 256 464 130l-16-18-32 0 0 28.4 0 7.8 0 11.8 0 72-40 0 0-72 0-24-48 0 0 24 0 72-48 0 0-72 0-24-48 0 0 24 0 72-48 0 0-72 0-24-48 0 0 24 0 72-40 0 0-24 0-48L32 96zM464 202.2L511.8 256 464 309.8l0-107.5z"/></svg>

<svg xmlns="http://www.w3.org/2000/svg" viewBox="0 0 576 512"><!--! Font Awesome Pro 6.4.0 by @fontawesome - https://fontawesome.com License - https://fontawesome.com/license (Commercial License) Copyright 2023 Fonticons, Inc. --><path d="M32 96L0 128 64 256 0 384l32 32 64-64V304 280h40v72 24h48V352 280h48v72 24h48V352 280h48v72 24h48V352 280h40v72 11.8 7.8V400h32l16-18L576 256 464 130l-16-18H416v28.4 7.8V160v72H376V160 136H328v24 72H280V160 136H232v24 72H184V160 136H136v24 72H96V208 160L32 96zM464 202.2L511.8 256 464 309.8V202.2z"/></svg>
